build/img/icon_price.svg

<svg width="33" height="32" viewBox="0 0 33 32" fill="none" xmlns="http://www.w3.org/2000/svg">
<path d="M10.7945 8.43992C10.6776 8.323 10.5155 8.25574 10.3502 8.25574C10.1849 8.25574 10.0227 8.323 9.90583 8.43992C9.78899 8.55684 9.72168 8.71902 9.72168 8.88434C9.72168 9.04966 9.78893 9.21185 9.90583 9.32877C10.0227 9.44575 10.1849 9.51295 10.3502 9.51295C10.5155 9.51295 10.6776 9.44569 10.7945 9.32877C10.9114 9.21185 10.9787 9.04966 10.9787 8.88434C10.9787 8.71902 10.9114 8.55684 10.7945 8.43992Z" fill="#00B2FF"/>
<path d="M32.6111 2.61363L31.8339 1.83982L32.6108 1.06715C32.8563 0.823046 32.8563 0.427236 32.6108 0.183075C32.3653 -0.0610248 31.9675 -0.0610248 31.7219 0.183075L30.9455 0.955253L30.1798 0.192763C30.0619 0.0754958 29.9021 0.0094858 29.7355 0.0094233L19.0977 0.00354741C19.0971 0.00354741 19.0965 0.00354741 19.0959 0.00354741C18.2559 0.00354741 17.4662 0.328846 16.8722 0.919623L11.5638 6.19917C11.3184 6.44327 11.3184 6.83908 11.5638 7.08324C11.8093 7.32734 12.2071 7.32734 12.4527 7.08324L17.7611 1.80369C18.1177 1.44902 18.5917 1.2538 19.0959 1.2538C19.0963 1.2538 19.0967 1.2538 19.097 1.2538L29.4744 1.25955L30.0568 1.83939L27.7247 4.15874C26.7358 3.56965 25.4321 3.6981 24.5809 4.54461C24.0946 5.02831 23.8268 5.67134 23.8268 6.35532C23.8268 7.0393 24.0946 7.68233 24.5809 8.16603C25.0828 8.66523 25.7422 8.91483 26.4015 8.91483C27.0608 8.91483 27.7201 8.66523 28.2221 8.16603C29.072 7.32071 29.202 6.02664 28.6128 5.04362L30.9452 2.72396L31.5378 3.31411L31.5321 13.6211C31.5317 14.1222 31.3354 14.5933 30.9791 14.9477L15.642 30.2013C15.2855 30.5559 14.8114 30.7512 14.3072 30.7512C13.803 30.7512 13.3289 30.5559 12.9724 30.2013L2.42522 19.7114C2.0686 19.3568 1.87225 18.8853 1.87225 18.3838C1.87225 17.8824 2.0686 17.4109 2.42522 17.0562L9.20017 10.3181C9.4456 10.074 9.4456 9.67819 9.20017 9.43403C8.95468 9.18993 8.55683 9.18993 8.31127 9.43403L1.53632 16.1722C0.942374 16.7629 0.615234 17.5484 0.615234 18.3838C0.615234 19.2193 0.942374 20.0048 1.53632 20.5955L12.0835 31.0854C12.6966 31.6951 13.5018 32 14.3072 32C15.1126 32 15.9178 31.6951 16.5309 31.0854L31.8679 15.8316C32.4614 15.2413 32.7885 14.4565 32.789 13.6217L32.7949 3.0557C32.795 2.88992 32.7289 2.7309 32.6111 2.61363ZM27.3332 7.2819C27.0843 7.52943 26.7534 7.66577 26.4015 7.66577C26.0495 7.66577 25.7187 7.52943 25.4698 7.2819C24.956 6.77094 24.956 5.93951 25.4698 5.42855C25.7267 5.17302 26.064 5.04531 26.4015 5.04531C26.5286 5.04531 26.6556 5.0635 26.7785 5.09975L26.053 5.82124C25.8076 6.06534 25.8076 6.46115 26.053 6.70531C26.1758 6.82739 26.3366 6.8884 26.4974 6.8884C26.6583 6.8884 26.8191 6.82739 26.9419 6.70531L27.6653 5.98582C27.7959 6.43083 27.6854 6.93165 27.3332 7.2819Z" fill="#00B2FF"/>
<path d="M27.4632 13.2023L20.1386 5.87659C19.1683 4.90615 17.5895 4.90627 16.6193 5.87659L5.02826 17.4694C4.5582 17.9395 4.29932 18.5645 4.29932 19.2293C4.29932 19.8941 4.55814 20.5192 5.0282 20.9893L12.3528 28.3149C12.8229 28.7851 13.4478 29.044 14.1125 29.044C14.7772 29.044 15.4022 28.7851 15.8721 28.315L27.4632 16.7221C27.9333 16.252 28.1921 15.6271 28.1921 14.9622C28.1921 14.2974 27.9333 13.6724 27.4632 13.2023ZM26.5743 15.8331L14.9833 27.4261C14.7507 27.6587 14.4414 27.7868 14.1125 27.7868C13.7837 27.7868 13.4744 27.6587 13.2418 27.426L5.9171 20.1003C5.68449 19.8677 5.5564 19.5584 5.5564 19.2294C5.55634 18.9004 5.68449 18.5911 5.9171 18.3585L17.5082 6.76562C17.7483 6.52549 18.0636 6.40543 18.379 6.40543C18.6943 6.40543 19.0097 6.52556 19.2497 6.76562L26.5743 14.0913C26.8069 14.324 26.935 14.6332 26.935 14.9622C26.935 15.2912 26.8069 15.6005 26.5743 15.8331Z" fill="#00B2FF"/>
<path d="M21.1098 13.1218C21.3553 12.8764 21.3553 12.4783 21.1098 12.2328C20.8643 11.9873 20.4665 11.9873 20.2209 12.2328L19.859 12.5948C18.8927 11.9978 17.6528 12.0779 16.869 12.8617C16.412 13.3188 16.1782 13.9395 16.2106 14.6094C16.242 15.2563 16.5205 15.8739 16.9949 16.3483C16.9949 16.3484 16.995 16.3484 16.995 16.3485C17.5005 16.8543 17.5569 17.6207 17.1208 18.057C16.6844 18.4933 15.918 18.4368 15.4123 17.9311C14.9066 17.4253 14.8501 16.6587 15.2864 16.2224C15.5318 15.9769 15.5318 15.5789 15.2864 15.3333C15.0409 15.0879 14.643 15.0879 14.3975 15.3333C13.6137 16.1172 13.5337 17.3573 14.1306 18.3239L13.7012 18.7533C13.4557 18.9987 13.4557 19.3968 13.7012 19.6423C13.8242 19.7652 13.9851 19.8265 14.1459 19.8265C14.3068 19.8265 14.4676 19.7651 14.5903 19.6424L15.02 19.2127C15.4422 19.4735 15.9165 19.6056 16.3823 19.6056C16.9825 19.6056 17.5684 19.3873 18.0097 18.946C18.9359 18.0196 18.8796 16.456 17.8843 15.4599C17.8841 15.4597 17.884 15.4596 17.8838 15.4594C17.6308 15.2063 17.4825 14.8829 17.4662 14.5485C17.4512 14.2372 17.5547 13.9539 17.7579 13.7508C18.1941 13.3144 18.9604 13.3709 19.4662 13.8765C19.4662 13.8765 19.4662 13.8766 19.4663 13.8767C19.4664 13.8767 19.4664 13.8767 19.4664 13.8767C19.972 14.3826 20.0284 15.149 19.5921 15.5853C19.3467 15.8308 19.3467 16.2288 19.5921 16.4743C19.7149 16.5971 19.8757 16.6584 20.0365 16.6584C20.1974 16.6584 20.3582 16.5971 20.481 16.4743C21.2647 15.6904 21.3448 14.4503 20.7479 13.4838L21.1098 13.1218Z" fill="#00B2FF"/>
<path d="M14.7493 23.5431L11.5212 20.3145C11.2758 20.0692 10.8779 20.0691 10.6323 20.3145C10.3869 20.56 10.3869 20.958 10.6323 21.2035L13.8605 24.4322C13.9832 24.5549 14.1441 24.6163 14.3049 24.6163C14.4657 24.6163 14.6266 24.5549 14.7493 24.4322C14.9947 24.1867 14.9947 23.7887 14.7493 23.5431Z" fill="#00B2FF"/>
<path d="M9.79888 18.5923C9.68204 18.4755 9.52045 18.4081 9.35458 18.4081C9.18929 18.4081 9.02776 18.4754 8.91023 18.5923C8.79333 18.7092 8.72607 18.8714 8.72607 19.0374C8.72607 19.2027 8.79326 19.3649 8.91023 19.4818C9.02713 19.5987 9.18929 19.666 9.35458 19.666C9.52051 19.666 9.68204 19.5987 9.79888 19.4818C9.91641 19.3643 9.98366 19.2027 9.98366 19.0374C9.98366 18.8714 9.91641 18.7099 9.79888 18.5923Z" fill="#00B2FF"/>
</svg>

<svg width="33" height="32" fill="none" xmlns="http://www.w3.org/2000/svg"><path d="M10.794 8.44a.633.633 0 00-.444-.184.633.633 0 00-.444.184.634.634 0 00-.184.444c0 .166.067.328.184.445a.633.633 0 00.444.184.633.633 0 00.629-.629.633.633 0 00-.184-.444z" fill="#00B2FF"/><path d="M32.611 2.614l-.777-.774.777-.773a.623.623 0 000-.884.631.631 0 00-.89 0l-.776.772-.765-.762a.63.63 0 00-.445-.184L19.098.004h-.002c-.84 0-1.63.325-2.224.916L11.564 6.2a.623.623 0 000 .883.631.631 0 00.889 0l5.308-5.28a1.88 1.88 0 011.335-.55h.001l10.377.007.583.58-2.332 2.319a2.59 2.59 0 00-3.144.386 2.537 2.537 0 00-.754 1.81 2.57 2.57 0 002.574 2.56c.66 0 1.32-.25 1.821-.749.85-.845.98-2.14.39-3.122l2.333-2.32.593.59-.006 10.307c0 .501-.197.972-.553 1.327L15.642 30.2a1.88 1.88 0 01-1.335.55 1.88 1.88 0 01-1.335-.55L2.425 19.711a1.86 1.86 0 01-.553-1.327c0-.502.197-.973.553-1.328L9.2 10.318a.623.623 0 000-.884.631.631 0 00-.889 0l-6.775 6.738a3.099 3.099 0 00-.92 2.212c0 .835.326 1.62.92 2.212l10.548 10.49a3.14 3.14 0 002.223.914c.806 0 1.61-.305 2.224-.915l15.337-15.253a3.1 3.1 0 00.921-2.21l.006-10.566a.623.623 0 00-.184-.442zm-5.278 4.668c-.249.247-.58.384-.931.384-.353 0-.683-.137-.932-.384a1.307 1.307 0 010-1.853 1.317 1.317 0 011.309-.33l-.726.722a.623.623 0 00.444 1.067c.161 0 .322-.06.445-.183l.723-.72c.13.446.02.947-.332 1.297z" fill="#00B2FF"/><path d="M27.463 13.202L20.14 5.877c-.97-.97-2.55-.97-3.52 0L5.03 17.469a2.473 2.473 0 00-.73 1.76c0 .665.26 1.29.73 1.76l7.324 7.326c.47.47 1.095.729 1.76.729.664 0 1.29-.259 1.76-.729l11.59-11.593c.47-.47.73-1.095.73-1.76s-.26-1.29-.73-1.76zm-.889 2.631l-11.59 11.593c-.233.233-.543.36-.871.36-.33 0-.639-.127-.871-.36L5.917 20.1a1.224 1.224 0 01-.36-.87c0-.33.127-.639.36-.872L17.508 6.766a1.229 1.229 0 011.741 0l7.325 7.325c.233.233.361.542.361.871 0 .33-.128.639-.36.871z" fill="#00B2FF"/><path d="M21.11 13.122a.629.629 0 00-.89-.89l-.361.363c-.966-.597-2.206-.517-2.99.267a2.281 2.281 0 00-.658 1.747c.031.647.31 1.265.784 1.74.505.505.562 1.272.126 1.708-.437.436-1.203.38-1.709-.126-.505-.506-.562-1.272-.126-1.709a.629.629 0 00-.888-.889c-.784.784-.864 2.024-.267 2.99l-.43.43a.629.629 0 10.89.89l.429-.43a2.6 2.6 0 001.362.393c.6 0 1.186-.219 1.628-.66.926-.926.87-2.49-.126-3.486a1.39 1.39 0 01-.418-.912 1.038 1.038 0 01.292-.797c.436-.437 1.202-.38 1.708.126s.562 1.272.126 1.708a.629.629 0 00.889.89c.784-.785.864-2.025.267-2.991l.362-.362zm-6.36 10.421l-3.229-3.229a.629.629 0 00-.889.89l3.229 3.228a.627.627 0 00.888 0 .629.629 0 000-.889zm-4.951-4.951a.632.632 0 00-.444-.184.634.634 0 00-.445.184.633.633 0 00.444 1.074.632.632 0 00.63-.629.633.633 0 00-.185-.445z" fill="#00B2FF"/></svg>
